!! 00000] TT[00
!! NN
!!!OTL: Hongjun da dao shicheng xian
!!!ARE: Asia, China, Fujian, Ninghua
!! Ethnic Group: Han
!! II, 590, 1)
!!!SCT: C0267
!!!YEM: Copyright 1995, estate of Helmut Schaffrath.
**kern
*ICvox
*Ivox
*M3/4
*k[]
*C:
{8a
8g
8a
8cc
4dd
=1
8dd
8g
8a
16dd
16cc
4a}
=2
{8cc
8cc
8e
8g
4a
=3
8cc
8a
4g
8e
8r}
=4
{8a
8g
8a
8cc
4dd
=5
8dd
8g
8a
16dd
16cc
4a}
=6
{8cc
8cc
8e
8g
4a
=7
8cc
8a
4g
8e
8r}
==
!!!AGN: Shange, Kejia shange. Geming lishi minge
!! Der letzte Ton, Mi) gleitet nach unten.
!!!ONB: ESAC (Essen Associative Code) Database: CHINA
!!!AMT: simple triple
!!!AIN: vox
!!!EED: Helmut Schaffrath
!!!EEV: 1.0
*-
